X:1
T:Mutual Love
T:William Walker, 1835 G Major        Alto by William Walker, 1867
T:Transcribed from Southern Harmony, 1835, and Christian Harmony, 1867.
T:John Leland, 1793       76. 76. 76. 76.
%%score [ 1 2 3 4 ]
L:1/8
Q:1/4=150
M:4/4
K:G
V:1 treble nm="Tr." snm="Tr."
V:2 treble nm="A." snm="A."
V:3 treble-8 nm="T." snm="T."
V:4 bass nm="B." snm="B."
V:1
"_O  when shall I see Jesus,  And dwell with him above,\nAnd drink the flowing fountains  Of  everlasting  love.""_1.{" B4 G2 G2 | %1
 A2 G2 B4 | B2 e2 d3 B | G2 A2"_}" B4 :| %4
"_When shall I be  de–li–vered From this vain world of sin? And with my blessed Je – sus  Drink endless pleasure in." e4 B2 B2 | %5
 d2 B2 d4 | d2 e2 B3 d | e2 d2 B4 | d4 B3 A | G2 A2 B4 | B2 e2 d3 B | G2 A2 B4 |] %12
V:2
"_2.{""_But  now  I  am  a  sol–dier,  My Captain's gone before,\nHe's  given  me  my  orders,  And  tells  me  not to fear:" G4 G2 G2 | %1
 A2 G2 E4 | E2 G2 F3 E | D2 D2"_}" D4 :| %4
"_And   if  I hold out  faithful,   A crown of life he'll give,  And  all  his  valiant  sol – diers  E–ter–nal  life shall have." G4 G2 G2 | %5
 B2 B2 B4 | B2 B2 G3 G | E2 D2 E4 | G4 G3 F | E2 E2 E4 | G2 G2 F3 E | D2 D2 D4 |] %12
V:3
"_3.{""_Through grace I am determined To conquer though I die,\nAnd   then  away  to  Je – sus,   On wings of love  I'll fly:" G4 B2 B2 | %1
 A2 G2 E4 | G2 G2 A3 B | G2 D2"_}" G4 :| %4
"_Farewell  to  sin  and  sorrow,   I   bid   it     all  adieu,    And you my friends, be faithful, And on your way pursue." B4 d2 B2 | %5
 d2 e2 g4 | b2 g2 e3 d | B2 d2 e4 | g4 d3 d | B2 A2 G4 | E2 G2 A3 B | G2 D2 G4 |] %12
V:4
"______________________________________________________\nBased on an American folk tune (Jackson 1952, No. 231).\nIncluded in the 1911 edition of \nThe Sacred Harp\n, p. 430, and\n   in re-arranged form on p. 410 from 1936 to the present.""_4. And if you meet with troubles,\nAnd trials on the way,\nThen cast your cares on Jesus,\nAnd don't forget to pray,\nGird on the heavenly armor\nOf faith, and hope and love,\nAnd when your race is ended,\nYou'll reign with him above." G,4 E,2 E,2 | %1
 D,2 E,2 G,4 | E,2 E,2 D,3 B,, | D,2 D,2 [G,,G,]4 :| E,4 D,2 E,2 | %5
"_5. O do not be discouraged,\nFor Jesus is your friend,\nAnd if you lack for knowledge,\nHe'll not refuse to lend,\nNeither will he upbraid you,\nThough often you request,\nHe'll give you grace to conquer,\nAnd take you up to rest." G,2 E,2 G,4 | %6
 G,2 G,2 E,3 D, | %7
"______________________________________________________\nEdited by B. C. Johnston, 2018\n   1. Measures 4 and 12, \nTenor\n: middle note changed from E to D.\n   2. Measure 9, Tenor: middle note changed from E to D." [B,,G,]2 [B,,B,]2 E,4 | %8
 G,4 D,3 D, | E,2 E,2 G,4 | G,2 E,2 D,3 B,, | D,2 D,2 [G,,G,]4 |] %12

